X:1
T:Title
%%score { 1 | 2 }
L:1/8
Q:1/4=100
M:4/4
K:C
V:1 treble nm="Grand Piano"
V:2 bass 
V:1
 C3 E [EG]2 [EG]2 | [FA]2 [FB]2 [Ec]2 z2 | [Gd]2 [FG]2 [Ee]3 [Ec] | [DB]2 [CA]2 [B,G]2 z2 | %4
w: George~Frederick~Handel * * *||||
 [EG]3 [EG] [FA]2 [FB]2 | [Gc]2 [Gd]2 [Ge]2 z2 | [^Ge]3 [Gd] [Ac]2 d2 |[M:8/4] c2 [FB]2 .[Ec]4 z8 | %8
w: ||||
[M:4/4] [Fc]4 [Ec]4 |] %9
w: |
V:2
 [C,E,]3 [C,G,C] [C,C]2 [C,C]2 | [F,C]2 [D,G,]2 [C,G,]2 z2 | [B,,G,]2 [B,,G,]2 [C,G,]3 [C,G,] | %3
 [D,G,]2 [D,^F,]2 [G,,G,]2 z2 | [C,G,]3 [C,C] [F,C]2 [D,D]2 | [E,C]2 [D,B,]2 [C,C]2 z2 | %6
 [E,B,]3 [E,B,] [F,A,]2 [F,A,F]2 |[M:8/4] [G,E]2 [G,,G,]2 .[C,G,]4 z8 |[M:4/4] [F,,A,]4 [C,G,]4 |] %9

